X: 134
T: Tam Lin: alternate version
C: Davey Arthur
R: reel
B: The Portland Collection v.2 p.200
Z: 2011 John Chambers <jc:trillian.mit.edu>
M: C|
L: 1/8
K: Dm
|: "Dm"A,D (3DDD A,DFD | "Bb"B,2DB, FB,DB, | "C"C2EC GCEC | "Dm"FEDC "Am"DCA,G, |
y3 "Dm"A,D (3DDD A,DFD | "Bb"B,2DB, FB,DB, | "C"C2EC GCEC | "Am"FEDC "Dm"D4 :|
|: "Dm"dcAG F2D2 | dcAG F2D2 | "C"cE (3EEE cEdE | cE (3EEE c=Bc^c |
y1 "Dm"dcAG F2D2 | dcAG F2DC | "Bb"B,2B,C D2DE | "Am"FEDC "Dm"D4 :|

